build/img/sprite/icon-menu-arrow.svg

<svg width="8" height="5" viewBox="0 0 8 5" xmlns="http://www.w3.org/2000/svg">
  <path d="M4 4.2416C3.90433 4.2416 3.81178 4.22541 3.72233 4.19303C3.63241 4.16065 3.55755 4.11748 3.49776 4.06351L0.197309 1.08468C0.0657695 0.965961 0 0.814861 0 0.631382C0 0.447903 0.0657695 0.296803 0.197309 0.178082C0.328849 0.0593605 0.496263 0 0.699552 0C0.90284 0 1.07025 0.0593605 1.20179 0.178082L4 2.70361L6.79821 0.178082C6.92975 0.0593605 7.09716 0 7.30045 0C7.50374 0 7.67115 0.0593605 7.80269 0.178082C7.93423 0.296803 8 0.447903 8 0.631382C8 0.814861 7.93423 0.965961 7.80269 1.08468L4.50224 4.06351C4.43049 4.12827 4.35276 4.17403 4.26906 4.2008C4.18535 4.228 4.09566 4.2416 4 4.2416Z" fill="currentColor"/>
</svg>

<svg width="8" height="5" xmlns="http://www.w3.org/2000/svg"><path d="M4 4.242a.81.81 0 0 1-.278-.049.669.669 0 0 1-.224-.13l-3.3-2.978A.584.584 0 0 1 0 .63C0 .448.066.297.197.178A.721.721 0 0 1 .7 0c.203 0 .37.06.502.178L4 2.704 6.798.178A.721.721 0 0 1 7.3 0c.204 0 .371.06.503.178.131.119.197.27.197.453a.584.584 0 0 1-.197.454l-3.3 2.979a.636.636 0 0 1-.234.137.866.866 0 0 1-.269.04Z" fill="currentColor"/></svg>
